X:02
T: Salt Creek
C: Traditional - Bill Monroe Solo
Z: TablEdited by John Bird for MandoZine
S: MandoZine TablEdit Archives
L: 1/8
Q: 540
M: 4/4
K: A
 z6 E2 |: "A"[A=G][AA] [AA][AA] [A2A2] [AA][AA] | BA cA "D"dd d2 | "G"[B=G][B=G] [B=G][B=G] [B2=G2] [B=G][B=G] |
 =cB A=G "E"E2 EE | "A"[A=G][AA] [AA][AA] [A2A2] [AA][AA] | BA cA "D"dd d2 | "G"=gf ed cA Ac |
|1 B"E"A GB "A"A2 E2 :|2 B"E"A GB "A"A2 AA |: "A"fa aa aa aa | ab af e2 ef | "G"=g=g =g=g =g2 =g=g |
 =ga =ga ed cA | "A"fa aa aa aa | ab af e2 ef | "G"=gf =gf ef ed |1 c"E"A Bc "A"A2 AA :|2 c"E"A Bc "A"A2 E2 |
